flaticon/business/time-passing.svg

<svg xmlns="http://www.w3.org/2000/svg" width="32" height="32" viewBox="0 0 24 24">
    <path d="M 0.402344 12.402344 C 0.621094 12.402344 0.800781 12.222656 0.800781 12.003906 C 0.800781 5.824219 5.828125 0.800781 12.003906 0.800781 C 14.535156 0.800781 16.957031 1.644531 18.925781 3.199219 L 16.804688 3.199219 C 16.582031 3.199219 16.40625 3.378906 16.40625 3.601562 C 16.40625 3.820312 16.582031 4 16.804688 4 L 19.972656 4 C 19.996094 4.003906 20.023438 4.003906 20.046875 4 L 20.40625 4 L 20.40625 0.398438 C 20.40625 0.179688 20.226562 0 20.003906 0 C 19.785156 0 19.605469 0.179688 19.605469 0.398438 L 19.605469 2.722656 C 17.460938 0.964844 14.796875 0 12.003906 0 C 5.386719 0 0.00390625 5.382812 0.00390625 12.003906 C 0.00390625 12.222656 0.179688 12.402344 0.402344 12.402344 Z M 0.402344 12.402344"/>
    <path d="M 12.003906 3.199219 C 7.152344 3.199219 3.203125 7.148438 3.203125 12.003906 C 3.203125 16.855469 7.152344 20.804688 12.003906 20.804688 C 16.855469 20.804688 20.804688 16.855469 20.804688 12.003906 C 20.804688 7.148438 16.855469 3.199219 12.003906 3.199219 Z M 12.003906 20.003906 C 7.59375 20.003906 4.003906 16.414062 4.003906 12.003906 C 4.003906 7.589844 7.59375 4 12.003906 4 C 16.414062 4 20.003906 7.589844 20.003906 12.003906 C 20.003906 16.414062 16.414062 20.003906 12.003906 20.003906 Z M 12.003906 20.003906"/>
    <path d="M12.003906 6C12.226562 6 12.402344 5.820312 12.402344 5.601562L12.402344 4.800781C12.402344 4.578125 12.226562 4.402344 12.003906 4.402344 11.78125 4.402344 11.605469 4.578125 11.605469 4.800781L11.605469 5.601562C11.605469 5.820312 11.78125 6 12.003906 6zM12.003906 18.003906C11.78125 18.003906 11.605469 18.183594 11.605469 18.402344L11.605469 19.203125C11.605469 19.425781 11.78125 19.601562 12.003906 19.601562 12.226562 19.601562 12.402344 19.425781 12.402344 19.203125L12.402344 18.402344C12.402344 18.183594 12.226562 18.003906 12.003906 18.003906zM18.40625 12.402344L19.207031 12.402344C19.425781 12.402344 19.605469 12.222656 19.605469 12.003906 19.605469 11.78125 19.425781 11.601562 19.207031 11.601562L18.40625 11.601562C18.183594 11.601562 18.003906 11.78125 18.003906 12.003906 18.003906 12.222656 18.183594 12.402344 18.40625 12.402344zM5.601562 11.601562L4.804688 11.601562C4.582031 11.601562 4.402344 11.78125 4.402344 12.003906 4.402344 12.222656 4.582031 12.402344 4.804688 12.402344L5.601562 12.402344C5.824219 12.402344 6.003906 12.222656 6.003906 12.003906 6.003906 11.78125 5.824219 11.601562 5.601562 11.601562zM12.402344 10.058594L12.402344 8C12.402344 7.78125 12.226562 7.601562 12.003906 7.601562 11.78125 7.601562 11.605469 7.78125 11.605469 8L11.605469 10.058594C10.914062 10.238281 10.402344 10.859375 10.402344 11.601562 10.402344 11.898438 10.488281 12.171875 10.628906 12.410156L7.320312 15.71875C7.164062 15.875 7.164062 16.128906 7.320312 16.285156 7.398438 16.363281 7.5 16.402344 7.601562 16.402344 7.707031 16.402344 7.808594 16.363281 7.886719 16.285156L11.195312 12.976562C11.433594 13.117188 11.707031 13.203125 12.003906 13.203125 12.886719 13.203125 13.605469 12.484375 13.605469 11.601562 13.605469 10.859375 13.09375 10.238281 12.402344 10.058594zM12.003906 12.402344C11.5625 12.402344 11.203125 12.042969 11.203125 11.601562 11.203125 11.160156 11.5625 10.800781 12.003906 10.800781 12.445312 10.800781 12.804688 11.160156 12.804688 11.601562 12.804688 12.042969 12.445312 12.402344 12.003906 12.402344zM4.757812 21.066406C4.625 21.242188 4.664062 21.496094 4.84375 21.628906 4.910156 21.679688 4.996094 21.703125 5.078125 21.703125 5.203125 21.703125 5.324219 21.652344 5.402344 21.542969 5.53125 21.367188 5.496094 21.117188 5.320312 20.984375 5.140625 20.851562 4.890625 20.886719 4.757812 21.066406zM2.894531 18.511719C2.765625 18.335938 2.515625 18.292969 2.335938 18.417969 2.15625 18.550781 2.113281 18.800781 2.242188 18.980469 2.324219 19.085938 2.441406 19.148438 2.570312 19.148438 2.652344 19.148438 2.730469 19.125 2.800781 19.070312 2.980469 18.941406 3.023438 18.691406 2.894531 18.511719zM3.050781 19.382812C2.886719 19.53125 2.871094 19.785156 3.019531 19.945312 3.09375 20.039062 3.207031 20.082031 3.316406 20.082031 3.410156 20.082031 3.507812 20.050781 3.582031 19.984375 3.746094 19.835938 3.761719 19.582031 3.613281 19.417969 3.46875 19.25 3.21875 19.238281 3.050781 19.382812zM4.425781 20.242188C4.265625 20.09375 4.011719 20.105469 3.863281 20.269531 3.710938 20.429688 3.722656 20.683594 3.886719 20.835938 3.960938 20.902344 4.058594 20.941406 4.15625 20.941406 4.261719 20.941406 4.371094 20.894531 4.449219 20.8125 4.597656 20.648438 4.589844 20.394531 4.425781 20.246094 4.425781 20.242188 4.425781 20.242188 4.425781 20.242188zM2.269531 17.539062C2.265625 17.539062 2.265625 17.539062 2.265625 17.539062 2.160156 17.347656 1.914062 17.277344 1.722656 17.390625 1.53125 17.5 1.460938 17.742188 1.574219 17.933594 1.644531 18.0625 1.78125 18.136719 1.921875 18.136719 1.988281 18.136719 2.058594 18.117188 2.117188 18.082031 2.308594 17.976562 2.378906 17.730469 2.269531 17.539062zM23.582031 12.851562C23.589844 12.851562 23.59375 12.851562 23.597656 12.851562 23.8125 12.851562 23.988281 12.675781 23.996094 12.464844 24.007812 12.242188 23.832031 12.058594 23.613281 12.050781 23.394531 12.042969 23.207031 12.214844 23.199219 12.433594 23.191406 12.652344 23.363281 12.84375 23.582031 12.851562zM.507812 13.597656C.726562 13.574219.886719 13.378906.863281 13.15625.839844 12.9375.640625 12.777344.421875 12.800781.203125 12.820312.0429688 13.023438.0664062 13.238281.0859375 13.445312.261719 13.597656.460938 13.597656.476562 13.597656.488281 13.597656.507812 13.597656zM.730469 14.773438C.945312 14.730469 1.085938 14.519531 1.039062 14.300781.996094 14.085938.78125 13.945312.566406 13.992188.351562 14.039062.210938 14.25.257812 14.464844.292969 14.65625.460938 14.78125.644531 14.78125.671875 14.78125.703125 14.78125.730469 14.773438zM1.746094 16.503906C1.660156 16.300781 1.421875 16.210938 1.21875 16.296875 1.019531 16.386719.925781 16.621094 1.015625 16.828125 1.082031 16.972656 1.226562 17.066406 1.382812 17.066406 1.433594 17.066406 1.492188 17.054688 1.542969 17.03125 1.742188 16.941406 1.832031 16.707031 1.746094 16.503906zM1.332031 15.421875C1.269531 15.210938 1.042969 15.09375.832031 15.164062.621094 15.230469.503906 15.453125.574219 15.667969.628906 15.835938.785156 15.941406.953125 15.941406.992188 15.941406 1.039062 15.9375 1.078125 15.925781 1.285156 15.859375 1.402344 15.628906 1.332031 15.421875zM11.789062 23.199219C11.566406 23.195312 11.382812 23.371094 11.378906 23.589844 11.375 23.816406 11.550781 23.996094 11.773438 24 11.777344 24 11.78125 24 11.78125 24 12 24 12.175781 23.828125 12.179688 23.609375 12.183594 23.386719 12.007812 23.203125 11.789062 23.199219zM20.859375 18.859375C20.722656 19.03125 20.753906 19.285156 20.925781 19.417969 21 19.476562 21.085938 19.503906 21.171875 19.503906 21.289062 19.503906 21.410156 19.453125 21.488281 19.347656 21.625 19.175781 21.59375 18.921875 21.417969 18.789062 21.242188 18.652344 20.992188 18.683594 20.859375 18.859375zM18.335938 21.234375C18.15625 21.359375 18.109375 21.609375 18.238281 21.792969 18.3125 21.902344 18.4375 21.964844 18.566406 21.964844 18.644531 21.964844 18.722656 21.945312 18.792969 21.894531 18.972656 21.773438 19.019531 21.519531 18.894531 21.339844 18.769531 21.15625 18.519531 21.113281 18.335938 21.234375zM19.257812 20.53125C19.089844 20.675781 19.070312 20.925781 19.214844 21.09375 19.292969 21.1875 19.40625 21.234375 19.515625 21.234375 19.609375 21.234375 19.703125 21.203125 19.777344 21.140625 19.945312 20.996094 19.964844 20.742188 19.820312 20.574219 19.675781 20.40625 19.425781 20.386719 19.257812 20.53125zM22.070312 17.777344C21.882812 17.664062 21.632812 17.722656 21.515625 17.90625 21.402344 18.09375 21.457031 18.34375 21.644531 18.457031 21.714844 18.5 21.785156 18.519531 21.855469 18.519531 21.988281 18.519531 22.121094 18.453125 22.199219 18.332031 22.3125 18.144531 22.257812 17.894531 22.070312 17.777344zM20.101562 19.734375C19.945312 19.894531 19.953125 20.148438 20.113281 20.300781 20.1875 20.375 20.289062 20.410156 20.390625 20.410156 20.492188 20.410156 20.601562 20.371094 20.675781 20.285156 20.828125 20.128906 20.824219 19.875 20.664062 19.722656 20.503906 19.570312 20.253906 19.574219 20.101562 19.734375zM23.546875 13.246094C23.328125 13.214844 23.125 13.371094 23.09375 13.585938 23.0625 13.804688 23.214844 14.007812 23.433594 14.039062 23.453125 14.042969 23.472656 14.042969 23.488281 14.042969 23.6875 14.042969 23.859375 13.898438 23.886719 13.699219 23.917969 13.480469 23.765625 13.277344 23.546875 13.246094zM23.359375 14.429688C23.140625 14.378906 22.925781 14.511719 22.871094 14.722656 22.816406 14.9375 22.949219 15.152344 23.160156 15.210938 23.195312 15.21875 23.226562 15.222656 23.257812 15.222656 23.4375 15.222656 23.601562 15.097656 23.644531 14.917969 23.703125 14.703125 23.570312 14.488281 23.359375 14.429688zM6.28125 21.628906C6.089844 21.515625 5.847656 21.574219 5.734375 21.769531 5.617188 21.957031 5.683594 22.203125 5.871094 22.316406 5.933594 22.355469 6.007812 22.371094 6.074219 22.371094 6.210938 22.371094 6.34375 22.304688 6.417969 22.175781 6.535156 21.988281 6.472656 21.742188 6.28125 21.628906zM23.046875 15.589844C22.835938 15.515625 22.605469 15.621094 22.535156 15.832031 22.457031 16.039062 22.5625 16.265625 22.769531 16.34375 22.8125 16.359375 22.863281 16.367188 22.90625 16.367188 23.070312 16.367188 23.226562 16.265625 23.28125 16.101562 23.359375 15.894531 23.253906 15.667969 23.046875 15.589844zM22.613281 16.710938C22.417969 16.613281 22.171875 16.695312 22.078125 16.894531 21.980469 17.09375 22.066406 17.335938 22.261719 17.429688 22.316406 17.457031 22.378906 17.472656 22.4375 17.472656 22.585938 17.472656 22.730469 17.386719 22.796875 17.246094 22.894531 17.046875 22.8125 16.808594 22.613281 16.710938zM10.632812 23.121094C10.410156 23.09375 10.214844 23.246094 10.1875 23.46875 10.160156 23.6875 10.316406 23.886719 10.535156 23.910156L10.535156 23.914062C10.550781 23.914062 10.566406 23.914062 10.582031 23.914062 10.785156 23.914062 10.957031 23.769531 10.980469 23.5625 11.007812 23.34375 10.851562 23.148438 10.632812 23.121094zM8.378906 22.605469C8.171875 22.53125 7.941406 22.640625 7.871094 22.851562 7.800781 23.058594 7.910156 23.289062 8.121094 23.359375 8.164062 23.371094 8.207031 23.378906 8.25 23.378906 8.414062 23.378906 8.570312 23.277344 8.628906 23.113281 8.699219 22.898438 8.585938 22.671875 8.378906 22.605469zM9.492188 22.917969C9.277344 22.871094 9.0625 23.003906 9.011719 23.21875 8.964844 23.4375 9.097656 23.652344 9.3125 23.699219 9.34375 23.707031 9.371094 23.707031 9.402344 23.707031 9.582031 23.707031 9.75 23.582031 9.792969 23.398438 9.84375 23.183594 9.707031 22.96875 9.492188 22.917969zM7.308594 22.171875C7.101562 22.074219 6.867188 22.164062 6.773438 22.363281 6.683594 22.5625 6.765625 22.804688 6.96875 22.894531 7.023438 22.917969 7.078125 22.929688 7.136719 22.929688 7.289062 22.929688 7.429688 22.847656 7.5 22.699219 7.589844 22.5 7.507812 22.261719 7.308594 22.171875zM14.09375 23.007812C13.875 23.046875 13.730469 23.261719 13.773438 23.476562 13.808594 23.667969 13.980469 23.800781 14.167969 23.800781 14.191406 23.800781 14.214844 23.800781 14.242188 23.796875 14.457031 23.753906 14.601562 23.542969 14.558594 23.328125 14.519531 23.109375 14.308594 22.96875 14.09375 23.007812zM15.214844 22.734375C15.003906 22.796875 14.882812 23.019531 14.949219 23.230469 15 23.402344 15.160156 23.515625 15.332031 23.515625 15.367188 23.515625 15.410156 23.511719 15.449219 23.5 15.660156 23.4375 15.78125 23.210938 15.714844 23 15.652344 22.792969 15.429688 22.671875 15.214844 22.734375zM16.308594 22.34375C16.105469 22.429688 16.007812 22.664062 16.09375 22.867188 16.15625 23.019531 16.304688 23.113281 16.460938 23.113281 16.511719 23.113281 16.566406 23.105469 16.617188 23.085938 16.820312 22.996094 16.917969 22.765625 16.832031 22.558594 16.746094 22.355469 16.511719 22.257812 16.308594 22.34375zM12.945312 23.164062C12.722656 23.183594 12.558594 23.375 12.578125 23.59375 12.59375 23.804688 12.773438 23.964844 12.980469 23.964844 12.988281 23.964844 13 23.964844 13.011719 23.964844L13.011719 23.960938C13.230469 23.945312 13.394531 23.75 13.375 23.53125 13.359375 23.3125 13.164062 23.148438 12.945312 23.164062zM17.351562 21.84375C17.15625 21.949219 17.085938 22.191406 17.191406 22.382812 17.265625 22.519531 17.402344 22.597656 17.542969 22.597656 17.609375 22.597656 17.671875 22.578125 17.734375 22.542969 17.929688 22.441406 18 22.195312 17.894531 22.003906 17.789062 21.808594 17.542969 21.734375 17.351562 21.84375zM17.351562 21.84375"/>
</svg>

<svg xmlns="http://www.w3.org/2000/svg" width="32" height="32" viewBox="0 0 24 24">
    <path d="M.402 12.402a.4.4 0 0 0 .399-.398C.8 5.824 5.828.8 12.004.8c2.531 0 4.953.844 6.922 2.398h-2.121a.398.398 0 0 0-.399.403c0 .218.176.398.399.398h3.168c.023.004.05.004.074 0h.36V.398a.401.401 0 0 0-.802 0v2.325A11.95 11.95 0 0 0 12.004 0c-6.617 0-12 5.383-12 12.004 0 .219.176.398.398.398zm0 0"/>
    <path d="M12.004 3.2c-4.852 0-8.8 3.948-8.8 8.804 0 4.851 3.948 8.8 8.8 8.8 4.851 0 8.8-3.949 8.8-8.8 0-4.856-3.949-8.805-8.8-8.805zm0 16.804c-4.41 0-8-3.59-8-8 0-4.414 3.59-8.004 8-8.004s8 3.59 8 8.004c0 4.41-3.59 8-8 8zm0 0"/>
    <path d="M12.004 6c.223 0 .398-.18.398-.398V4.8a.395.395 0 0 0-.398-.399.395.395 0 0 0-.399.399v.8c0 .22.176.399.399.399zm0 0M12.004 18.004a.398.398 0 0 0-.399.398v.801c0 .223.176.399.399.399a.395.395 0 0 0 .398-.399v-.8a.398.398 0 0 0-.398-.4zm0 0M18.406 12.402h.801a.4.4 0 0 0 0-.8h-.8a.401.401 0 0 0 0 .8zm0 0M5.602 11.602h-.797a.401.401 0 0 0 0 .8h.797a.401.401 0 1 0 0-.8zm0 0M12.402 10.059V8a.398.398 0 1 0-.797 0v2.059c-.69.18-1.203.8-1.203 1.543 0 .296.086.57.227.808L7.32 15.72a.4.4 0 0 0 .567.566l3.308-3.308c.239.14.512.226.809.226.883 0 1.601-.719 1.601-1.601 0-.743-.511-1.364-1.203-1.543zm-.398 2.343a.802.802 0 0 1 0-1.601.802.802 0 0 1 0 1.601zm0 0M4.758 21.066a.401.401 0 0 0 .086.563.39.39 0 0 0 .234.074.39.39 0 0 0 .324-.16.4.4 0 1 0-.645-.477zm0 0M2.895 18.512a.408.408 0 0 0-.56-.094.406.406 0 0 0-.093.562c.082.106.2.168.328.168.082 0 .16-.023.23-.078a.4.4 0 0 0 .095-.558zm0 0M3.05 19.383a.397.397 0 0 0-.03.562.375.375 0 0 0 .296.137.4.4 0 0 0 .266-.098.401.401 0 0 0 .031-.566.397.397 0 0 0-.562-.035zm0 0M4.426 20.242a.397.397 0 0 0-.563.028.398.398 0 0 0 .024.566.41.41 0 0 0 .27.105.401.401 0 0 0 .27-.695l-.001-.004zm0 0M2.27 17.54h-.004a.393.393 0 0 0-.543-.15.394.394 0 0 0-.149.544.396.396 0 0 0 .543.148.398.398 0 0 0 .153-.543zm0 0M23.582 12.852h.016c.215 0 .39-.176.398-.387a.395.395 0 0 0-.383-.414.4.4 0 0 0-.031.8zm0 0M.508 13.598a.4.4 0 1 0-.086-.797.399.399 0 0 0 .039.797h.047zm0 0M.73 14.773a.396.396 0 0 0 .31-.472.4.4 0 0 0-.781.164.39.39 0 0 0 .386.316c.027 0 .058 0 .085-.008zm0 0M1.746 16.504a.401.401 0 0 0-.527-.207.404.404 0 0 0-.203.531.396.396 0 0 0 .527.203c.2-.09.289-.324.203-.527zm0 0M1.332 15.422a.391.391 0 0 0-.5-.258.397.397 0 1 0 .121.777c.04 0 .086-.003.125-.015a.4.4 0 0 0 .254-.504zm0 0M11.79 23.2a.401.401 0 1 0-.017.8h.008a.401.401 0 0 0 .008-.8zm0 0M20.86 18.86a.397.397 0 0 0 .312.644c.117 0 .238-.05.316-.156a.395.395 0 0 0-.07-.559.394.394 0 0 0-.559.07zm0 0M18.336 21.234a.4.4 0 0 0-.098.559.397.397 0 0 0 .555.102.4.4 0 0 0 .102-.555.405.405 0 0 0-.56-.106zm0 0M19.258 20.531a.397.397 0 0 0-.043.563c.078.093.191.14.3.14a.406.406 0 0 0 .262-.093.402.402 0 0 0 .043-.567.397.397 0 0 0-.562-.043zm0 0M22.07 17.777a.412.412 0 0 0-.554.13.402.402 0 0 0 .683.425.408.408 0 0 0-.129-.555zm0 0M20.102 19.734a.397.397 0 0 0 .289.676c.101 0 .21-.039.285-.125a.396.396 0 0 0-.012-.562.396.396 0 0 0-.562.011zm0 0M23.547 13.246a.4.4 0 1 0-.113.792.4.4 0 0 0 .113-.792zm0 0M23.36 14.43a.408.408 0 0 0-.489.293.406.406 0 0 0 .29.488.4.4 0 0 0 .484-.293.4.4 0 0 0-.286-.488zm0 0M6.281 21.629a.394.394 0 0 0-.547.14.397.397 0 0 0 .34.602c.137 0 .27-.066.344-.195a.393.393 0 0 0-.137-.547zm0 0M23.047 15.59a.396.396 0 0 0-.512.242.396.396 0 1 0 .746.27.396.396 0 0 0-.234-.512zm0 0M22.613 16.71a.399.399 0 0 0-.535.185.401.401 0 0 0 .36.578.4.4 0 0 0 .359-.227.399.399 0 0 0-.184-.535zm0 0M10.633 23.121a.395.395 0 0 0-.445.348.394.394 0 0 0 .347.441v.004h.047a.395.395 0 0 0 .398-.352.396.396 0 0 0-.347-.44zm0 0M8.379 22.605a.395.395 0 0 0-.508.247.4.4 0 0 0 .758.261.399.399 0 0 0-.25-.508zm0 0M9.492 22.918a.4.4 0 0 0-.18.781.404.404 0 0 0 .48-.3.402.402 0 0 0-.3-.481zm0 0M7.309 22.172a.4.4 0 1 0 0 0zm0 0M14.094 23.008a.4.4 0 0 0 .074.793c.023 0 .047 0 .074-.004a.402.402 0 0 0-.148-.79zm0 0M15.215 22.734a.395.395 0 0 0-.266.496.4.4 0 0 0 .766-.23.403.403 0 0 0-.5-.266zm0 0M16.309 22.344a.4.4 0 0 0 .152.77.44.44 0 0 0 .156-.028c.203-.09.301-.32.215-.527a.4.4 0 0 0-.523-.215zm0 0M12.945 23.164a.398.398 0 0 0-.367.43c.016.21.195.37.402.37h.032v-.003a.396.396 0 0 0 .363-.43.401.401 0 0 0-.43-.367zm0 0M17.352 21.844a.396.396 0 0 0-.16.539c.074.137.21.215.351.215.066 0 .129-.02.191-.055a.395.395 0 0 0 .16-.54.397.397 0 0 0-.542-.16zm0 0"/>
</svg>
